icons/lines/attach-square.svg

<svg xmlns="http://www.w3.org/2000/svg" width="24" height="24" viewBox="0 0 24 24" fill="none" stroke="currentColor" stroke-width="2" stroke-linecap="round" stroke-linejoin="round" >
  <path d="M12.1999 11.8L10.7899 13.21C10.0099 13.99 10.0099 15.26 10.7899 16.04C11.5699 16.82 12.8399 16.82 13.6199 16.04L15.8399 13.82C17.3999 12.26 17.3999 9.72999 15.8399 8.15999C14.2799 6.59999 11.7499 6.59999 10.1799 8.15999L7.75988 10.58C6.41988 11.92 6.41988 14.09 7.75988 15.43"/>
  <path d="M9 22H15C20 22 22 20 22 15V9C22 4 20 2 15 2H9C4 2 2 4 2 9V15C2 20 4 22 9 22Z"/>
  </svg>

<svg xmlns="http://www.w3.org/2000/svg" width="24" height="24" viewBox="0 0 24 24" fill="none" stroke="currentColor" stroke-width="2" stroke-linecap="round" stroke-linejoin="round">
  <path d="m12.2 11.8-1.41 1.41a2 2 0 1 0 2.83 2.83l2.22-2.22a4 4 0 1 0-5.66-5.66l-2.42 2.42a3.43 3.43 0 0 0 0 4.85" />
  <path d="M15 22c5 0 7-2 7-7V9c0-5-2-7-7-7H9C4 2 2 4 2 9v6c0 5 2 7 7 7z" />
</svg>
